X:48
T:The Icy Streets of Greenfield
R:reel
C:Paul S. Cranford
O:Cape Breton Island
S:http://www.cranfordpub.com
D:currently unrecorded
B:currently unpublished in book form
Z:psc, (re-formatted,updated 9/17/04)
N:
H:                                                        copyrights Cranford Publications, SOCAN
L:1/8
Q:333
M:C|
K:D
B|A2 AF EDDF|A2 FA Bdde|fdec dABd|AFDE FEEF|
A2 AF EDDF|A2 FA Bdde|fdec dABd|AFEG FDD:|
|:f|b2 ba feef|aefa edBd|AFAB defb|afde fefa|
[1bfab feef|aefa edBd|AFAB defb|afeg fdd:|
[2bfab feef|aefa edBd|AFdf ecdB|AFEG FDD|]
